X: 03005
T: APRIL'S HORNPIPE
C: Bob McQuillen 9 Dec 76
B: Bob's Note Book 03 #5
R: hornpipe, reel
%D:1976
Z: 2020 John Chambers <jc:trillian.mit.edu>
M: C
L: 1/8
K: D
AG \
| FAde f2d2 | edBd A2FA | GBAG FAde | f2e2 e2 AG |\
| FAde f2df | edBd A2FA | GBAd cdeg | f2d2 d2 :|
|: fg \
| a2af defd | a2af defd | efga gfed | ceA2 A2 fg |\
| a2af defd | a2af defd | efga gfea | f2d2 d2 :|
%%begintext align
%% With love to April Limber,
%% a _really_ _fine_ fiddler.
%%endtext

%%sep 1 1 500

%%sep 1 1 500

